X: 90
T:Lexie McAskill's
M:4/4
L:1/8
C:Dr John McAskill
Z:Rachel Marsh,  25/10/1999
K:Em
a | e2 e2 deed | e2 dB GABd | e2 e2 deed | egfd e2 Bd| e2 e2 deed | e2 d
B GABd | e2 e2 deed | egfd e2 ef :||
g2 f2 e2 dB | A2 dB GABd | g2 f2 e2 dB | egfd e2 ef | g2 f2 e2 dB | A2 d
B GABd | g2 f2 e2 dB | egfd e2  ed :||
e2 e2 e2 dB| A3 B GABd | e2 e2 e2 dB | egfd e2 Bd| e2 e2 e2 dB| A3 B GAB
d | e2 e2 e2 dB | egfd e2 eg:||
aeea e2 dB| A2 dB GABd | aeea e2 dB | egfd e2 g2| aeea e2 dB| A2 dB GABd
 | aeea e2 dB egfd e2 e2 :||

